src/images/icons/employee-case-flower.svg

<svg width="110" height="136" viewBox="0 0 110 136" fill="none" xmlns="http://www.w3.org/2000/svg">
<path d="M76.2962 101.465C76.2962 101.465 65.1416 105.434 57.6785 106.156C47.2387 107.165 39.8392 103.103 29.3856 103.957C18.2473 104.867 3.58472 111.287 3.58472 111.287C3.58472 111.287 5.58938 108.586 7.46226 107.104C10.2823 104.871 10.5156 104.649 13.1134 103.077C18.0355 100.099 23.6512 98.6004 29.3856 98.2408M97.48 60.143C98.9953 59.6658 101.32 58.8766 102.39 58.2188C111.659 52.5195 109.793 40.9009 119.689 36.3761C126.6 33.2159 140.826 36.3758 140.826 36.3758C140.826 36.3758 131.179 36.311 122.144 39.7757C111.262 43.9485 110.335 56.9597 104.443 67.0146C101.018 72.8591 96.3521 80.9425 93.6722 85.5951" stroke="#33386F"/>
<path d="M20.3508 8.27654C20.3508 8.27654 20.3508 4.17257 23.1361 2.85248C28.6457 0.241248 29.6805 4.73431 41.0255 8.81053" stroke="#33386F"/>
<path d="M5.54444 57.0931C5.54444 57.0931 5.59493 56.5604 5.54444 55.1874C5.22798 46.582 0.999983 51.9623 1 35.1038C1 31.023 2.9217 27.2782 4.5183 23.5227C5.61056 20.9535 5.50742 19.8103 7.45021 17.8055C9.69297 15.4911 12.8908 16.8939 15.5129 15.0201C18.0854 13.1819 16.6046 8.24503 19.7642 8.13014C35.8898 7.54375 36.6558 11.1377 36.6558 11.1377" stroke="#33386F"/>
<path d="M29.4396 19.7108C29.4396 19.7108 27.7489 19.8328 26.8009 20.2972C24.6319 21.3598 23.7219 25.1201 23.7219 25.1201" stroke="#33386F"/>
<path d="M57.879 10.4753C57.879 10.4753 53.1248 6.38647 47.6173 7.10363C40.4299 8.03952 32.4235 11.9547 29.7326 18.6847C27.8409 23.4157 29.1462 30.9987 29.1462 30.9987H26.2143M25.1199 71.6126C20.3122 62.6704 20.8714 59.0641 19.3243 49.03C18.0153 40.5403 18.0193 27.8315 18.4222 20.4011" stroke="#33386F"/>
<path d="M76.7903 97.9221C70.3608 97.2232 59.1822 95.9362 53.7584 94.8838C50.6368 94.2782 46.4263 92.3775 43.6596 90.8102C35.5476 86.2146 33.607 79.4443 26.8011 73.0721C17.933 64.7692 14.1939 62.0775 1.87983 54.4545C-0.239136 53.1427 6.44794 71.3294 12.4347 80.5485C17.9934 89.1084 24.663 96.9138 34.2775 100.339C54.9003 107.686 72.1233 102.793 75.9823 101.505" stroke="#33386F"/>
<path d="M59.2027 19.3522C59.2027 19.3522 56.1317 16.6457 56.1199 13.9936C56.112 12.218 57.2226 11.4432 57.7325 9.74235C58.6324 6.74023 57.0269 5.99582 58.612 3.29213C63.0406 -4.26152 75.813 8.74559 81.9207 15.0198C86.1175 19.331 87.6314 25.7229 88.1377 28.7905" stroke="#33386F"/>
<path d="M93.0618 83.6269C93.0618 83.6269 100.155 65.5496 96.5802 51.8156C95.5129 47.7153 93.0618 41.7005 89.8368 35.9833C88.3972 30.7529 88.9572 28.0226 85.4388 26.4546C80.0006 24.0309 77.817 26.7475 71.9521 25.7216C63.4719 24.2382 59.1878 15.4932 51.1355 18.5384C44.165 21.1745 42.3638 26.5248 40.1408 33.6378C37.4254 42.3259 39.2572 47.8869 40.1408 56.9465C41.1751 67.5521 39.0392 75.4383 45.858 83.6269C51.8544 90.828 58.2898 92.0186 67.4076 94.1818C70.6408 94.9489 75.2653 95.3618 77.7296 95.5395" stroke="#33386F"/>
<path d="M114.318 134.884C114.318 134.884 116.458 136.778 105.376 124.966C95.203 114.123 89.104 105.762 76.3501 101.951C74.0069 101.251 77.7422 97.7987 77.8161 95.3541C77.8965 92.694 76.73 92.1244 76.3501 89.4903C76.056 87.4504 77.0401 86.0083 76.3501 84.0663C75.387 81.3555 70.1931 78.6422 70.1931 78.6422C70.1931 78.6422 75.5949 80.2814 79.1355 80.9877C84.1078 81.9797 91.0617 79.4729 93.2087 84.0663C94.2753 86.3483 92.2562 87.7139 92.4757 90.2233C92.8555 94.5667 92.3232 96.256 95.1144 99.6054C100.978 106.642 107.334 112.865 114.318 122.181C122.017 132.45 120.377 129.465 120.377 129.465L114.318 134.884Z" stroke="#33386F"/>
<path d="M17.4189 16.7787C17.8236 15.6223 19.3246 14.2866 19.3246 14.2866L26.2147 30.9985C26.2147 30.9985 16.3928 19.7106 17.4189 16.7787Z" stroke="#33386F"/>
</svg>

<svg xmlns="http://www.w3.org/2000/svg" width="110" height="136" fill="none"><path stroke="#33386F" d="M76.296 101.465s-11.154 3.969-18.618 4.691c-10.44 1.009-17.839-3.053-28.292-2.199-11.139.91-25.801 7.33-25.801 7.33s2.004-2.701 3.877-4.183c2.82-2.233 3.054-2.455 5.651-4.027 4.922-2.978 10.538-4.477 16.273-4.836M97.48 60.143c1.515-.477 3.84-1.266 4.91-1.924 9.269-5.7 7.403-17.318 17.299-21.843 6.911-3.16 21.137 0 21.137 0s-9.647-.065-18.682 3.4c-10.882 4.172-11.809 17.184-17.701 27.239a3272.413 3272.413 0 00-10.77 18.58"/><path stroke="#33386F" d="M20.35 8.277s0-4.104 2.786-5.425c5.51-2.61 6.544 1.882 17.89 5.959"/><path stroke="#33386F" d="M5.544 57.093s.05-.533 0-1.906C5.228 46.582 1 51.962 1 35.104c0-4.081 1.922-7.826 3.518-11.581 1.093-2.57.99-3.713 2.932-5.718 2.243-2.314 5.44-.911 8.063-2.785 2.572-1.838 1.092-6.775 4.251-6.89 16.126-.586 16.892 3.008 16.892 3.008"/><path stroke="#33386F" d="M29.44 19.71s-1.691.123-2.64.587c-2.168 1.063-3.078 4.823-3.078 4.823"/><path stroke="#33386F" d="M57.879 10.475s-4.754-4.089-10.262-3.371c-7.187.936-15.194 4.85-17.884 11.58C27.84 23.417 29.146 31 29.146 31h-2.932M25.12 71.613c-4.808-8.943-4.249-12.549-5.796-22.583-1.309-8.49-1.305-21.199-.902-28.629"/><path stroke="#33386F" d="M76.79 97.922c-6.43-.699-17.608-1.986-23.032-3.038-3.121-.606-7.332-2.507-10.098-4.074-8.112-4.595-10.053-11.366-16.859-17.738C17.933 64.77 14.194 62.077 1.88 54.455c-2.12-1.312 4.568 16.874 10.555 26.094 5.558 8.56 12.228 16.365 21.843 19.79 20.622 7.347 37.845 2.454 41.704 1.166"/><path stroke="#33386F" d="M59.203 19.352s-3.071-2.706-3.083-5.358c-.008-1.776 1.103-2.55 1.613-4.252.9-3.002-.706-3.746.879-6.45 4.429-7.554 17.201 5.454 23.309 11.728 4.197 4.311 5.71 10.703 6.217 13.77"/><path stroke="#33386F" d="M93.062 83.627s7.093-18.077 3.518-31.811c-1.067-4.1-3.518-10.116-6.743-15.833-1.44-5.23-.88-7.96-4.398-9.528-5.438-2.424-7.622.293-13.487-.733-8.48-1.484-12.764-10.229-20.816-7.184-6.971 2.636-8.772 7.987-10.995 15.1-2.716 8.688-.884 14.249 0 23.309 1.034 10.605-1.102 18.491 5.717 26.68 5.996 7.201 12.432 8.392 21.55 10.555 3.233.767 7.857 1.18 10.322 1.358"/><path stroke="#33386F" d="M114.318 134.884s2.14 1.894-8.942-9.918c-10.173-10.843-16.272-19.204-29.026-23.015-2.343-.7 1.392-4.152 1.466-6.597.08-2.66-1.086-3.23-1.466-5.864-.294-2.04.69-3.482 0-5.424-.963-2.71-6.157-5.424-6.157-5.424s5.402 1.64 8.942 2.346c4.973.992 11.927-1.515 14.074 3.078 1.066 2.282-.953 3.648-.733 6.157.38 4.344-.153 6.033 2.638 9.382 5.864 7.037 12.22 13.26 19.204 22.576 7.699 10.269 6.059 7.284 6.059 7.284l-6.059 5.419z"/><path stroke="#33386F" d="M17.419 16.779c.405-1.157 1.906-2.492 1.906-2.492l6.89 16.712s-9.822-11.288-8.796-14.22z"/></svg>
